X: 12
T: Dokąd mię chcesz zapomnieć? Dokąd świętą swoje
C: Mikołaj Gomółka
%%abc-version 2.0
%%abcx-abcm2ps-target-version 5.9.1 (29 Sep 2008)
%%abc-creator hum2abc beta
%%abcx-conversion-date 2021/10/04 07:59:10
%%abc-edited-by Leszek Kubiak
%%abcx-initial-encoding-date data 2020-02-03
%%humdrum-veritas 1117713478
%%humdrum-veritas-data 3118282180
%%linebreak <none>
%%barnumbers 0
L: 1/4
M: C|
N: Derived from pl-wn--sd-xvi-qu-273--013_gomolka-mikolaj--dokad-mie-chcesz-zapomniec-dokad-swieta-swoje.krn
%%staves [1 2 3 4]
V: 1
V: 2 clef=alto
V: 3 clef=tenor
V: 4 clef=bass
K: C
[V:1] A4A2A2 [|] 
[V:2] F4E2F2 [|] 
[V:3] D4^C2D2 [|] 
[V:4] D,4A,2D,2 [|] 
[V:1] c2c2_B4 [|] 
[V:2] A2A2G3F [|] 
[V:3] E2FEDCD2 [|] 
[V:4] A,2F,2G,4 [|] 
[V:1] A2A2c4 [|] 
[V:2] E2F2G4 [|] 
[V:3] C2D2E4 [|] 
[V:4] A,2D,2C,4 [|] 
[V:1] B2A4G2 [|] 
[V:2] F2F2E3D [|] 
[V:3] D2>C2B,A,B,2 [|] 
[V:4] D,2D,2E,4 [|] 
[V:1] A4 [|] 
[V:2] ^C4 [|] 
[V:3] A,4 [|] 
[V:4] A,,4 [|] 
[V:1] ^F4 [I:setbarnb 6][|] 
[V:2] D4 [|] 
[V:3] A,4 [|] 
[V:4] D,4 [|] 
[V:1] G4_B2A2 [|] 
[V:2] D2E2F3E [|] 
[V:3] B,2C2D3C [|] 
[V:4] G,,2C,2_B,,2F,,2 [|] 
[V:1] G2G2^F2A2 [|] 
[V:2] DCD2D2D2 [|] 
[V:3] B,A,B,2A,2F2 [|] 
[V:4] G,,4D,2D,2 [|] 
[V:1] Bcd2d2c2 [|] 
[V:2] D2D2A3G [|] 
[V:3] GFEDE2E2 [|] 
[V:4] G,,2B,,2A,,2A,,2 [|] 
[V:1] d2A2A2A2 [|] 
[V:2] ^F2=F2E2F2 [|] 
[V:3] D2D2^C2D2 [|] 
[V:4] D,2D,2A,2D,2 [|] 
[V:1] c2c2_B4 [|] 
[V:2] A2A2G3=F [|] 
[V:3] E2FEDCD2 [|] 
[V:4] A,2F,2G,4 [|] 
[V:1] A2>G2F2EF [|] 
[V:2] E2>D2D2B,2 [|] 
[V:3] C2>B,2A,2G,A, [|] 
[V:4] A,2A,,2D,2E,2 [|] 
[V:1] EDD4C2 [|] 
[V:2] CB,A,G,A,4 [|] 
[V:3] G,F,E,D,E,4 [|] 
[V:4] C,2D,2A,,4 [|] 
[V:1] D8 | 
[V:2] A,8 | 
[V:3] D,8 | 
[V:4] D,8 | 


